rospo-newyear-dark/symbolic/status/media-playlist-repeat-symbolic.svg

<svg height="16" width="16" xmlns="http://www.w3.org/2000/svg"><path d="m6 1v2h-2c-1.662 0-3 1.338-3 3v4c0 1.662 1.338 3 3 3h8c1.662 0 3-1.338 3-3v-4c0-1.662-1.338-3-3-3h-1v2h1c .554 0 1 .446 1 1v4c0 .554-.446 1-1 1h-8c-.554 0-1-.446-1-1v-4c0-.554.446-1 1-1h2v2l4-3z" fill="#d3dae3"/></svg>

<svg xmlns="http://www.w3.org/2000/svg" width="16" height="16" version="1.1">
 <path style="fill:#d3dae3" d="M 6,1 V 3 H 4 C 2.338,3 1,4.338 1,6 V 10 C 1,11.662 2.338,13 4,13 H 12 C 13.662,13 15,11.662 15,10 V 6 C 15,4.338 13.662,3 12,3 H 11 V 5 H 12 C 12.554,5 13,5.446 13,6 V 10 C 13,10.554 12.554,11 12,11 H 4 C 3.446,11 3,10.554 3,10 V 6 C 3,5.446 3.446,5 4,5 H 6 V 7 L 10,4 Z"/>
</svg>
